public/assets/img/Vector9.svg

<svg width="500" height="500" viewBox="0 0 128 95" fill="none" xmlns="http://www.w3.org/2000/svg">
<rect width="124" height="94.24" rx="4" fill="#EAECEC"/>
<rect x="4.95999" y="4.95999" width="114.08" height="43.4" rx="4" fill="#DFE2E2"/>
<g filter="url(#filter0_d_407_2238)">
<rect x="5.00003" y="55.0004" width="114.08" height="29.76" rx="4" fill="#E62129"/>
</g>
<path d="M35.856 66.8124V69.7524C35.856 70.1604 35.738 70.4784 35.502 70.7064C35.266 70.9304 34.95 71.0424 34.554 71.0424C34.154 71.0424 33.83 70.9264 33.582 70.6944C33.338 70.4624 33.216 70.1384 33.216 69.7224H34.056C34.06 69.9024 34.102 70.0424 34.182 70.1424C34.266 70.2424 34.386 70.2924 34.542 70.2924C34.694 70.2924 34.81 70.2444 34.89 70.1484C34.97 70.0524 35.01 69.9204 35.01 69.7524V66.8124H35.856ZM38.3419 71.0544C38.0219 71.0544 37.7339 70.9844 37.4779 70.8444C37.2219 70.7004 37.0199 70.4984 36.8719 70.2384C36.7279 69.9784 36.6559 69.6784 36.6559 69.3384C36.6559 68.9984 36.7299 68.6984 36.8779 68.4384C37.0299 68.1784 37.2359 67.9784 37.4959 67.8384C37.7559 67.6944 38.0459 67.6224 38.3659 67.6224C38.6859 67.6224 38.9759 67.6944 39.2359 67.8384C39.4959 67.9784 39.6999 68.1784 39.8479 68.4384C39.9999 68.6984 40.0759 68.9984 40.0759 69.3384C40.0759 69.6784 39.9979 69.9784 39.8419 70.2384C39.6899 70.4984 39.4819 70.7004 39.2179 70.8444C38.9579 70.9844 38.6659 71.0544 38.3419 71.0544ZM38.3419 70.3224C38.4939 70.3224 38.6359 70.2864 38.7679 70.2144C38.9039 70.1384 39.0119 70.0264 39.0919 69.8784C39.1719 69.7304 39.2119 69.5504 39.2119 69.3384C39.2119 69.0224 39.1279 68.7804 38.9599 68.6124C38.7959 68.4404 38.5939 68.3544 38.3539 68.3544C38.1139 68.3544 37.9119 68.4404 37.7479 68.6124C37.5879 68.7804 37.5079 69.0224 37.5079 69.3384C37.5079 69.6544 37.5859 69.8984 37.7419 70.0704C37.9019 70.2384 38.1019 70.3224 38.3419 70.3224ZM41.1481 67.2804C41.0001 67.2804 40.8761 67.2344 40.7761 67.1424C40.6801 67.0464 40.6321 66.9284 40.6321 66.7884C40.6321 66.6484 40.6801 66.5324 40.7761 66.4404C40.8761 66.3444 41.0001 66.2964 41.1481 66.2964C41.2961 66.2964 41.4181 66.3444 41.5141 66.4404C41.6141 66.5324 41.6641 66.6484 41.6641 66.7884C41.6641 66.9284 41.6141 67.0464 41.5141 67.1424C41.4181 67.2344 41.2961 67.2804 41.1481 67.2804ZM41.5621 67.6764V71.0004H40.7221V67.6764H41.5621ZM44.264 67.6284C44.66 67.6284 44.98 67.7544 45.224 68.0064C45.468 68.2544 45.59 68.6024 45.59 69.0504V71.0004H44.75V69.1644C44.75 68.9004 44.684 68.6984 44.552 68.5584C44.42 68.4144 44.24 68.3424 44.012 68.3424C43.78 68.3424 43.596 68.4144 43.46 68.5584C43.328 68.6984 43.262 68.9004 43.262 69.1644V71.0004H42.422V67.6764H43.262V68.0904C43.374 67.9464 43.516 67.8344 43.688 67.7544C43.864 67.6704 44.056 67.6284 44.264 67.6284ZM47.6625 69.3264C47.6625 68.9904 47.7285 68.6924 47.8605 68.4324C47.9965 68.1724 48.1785 67.9724 48.4065 67.8324C48.6385 67.6924 48.8965 67.6224 49.1805 67.6224C49.4285 67.6224 49.6445 67.6724 49.8285 67.7724C50.0165 67.8724 50.1665 67.9984 50.2785 68.1504V67.6764H51.1245V71.0004H50.2785V70.5144C50.1705 70.6704 50.0205 70.8004 49.8285 70.9044C49.6405 71.0044 49.4225 71.0544 49.1745 71.0544C48.8945 71.0544 48.6385 70.9824 48.4065 70.8384C48.1785 70.6944 47.9965 70.4924 47.8605 70.2324C47.7285 69.9684 47.6625 69.6664 47.6625 69.3264ZM50.2785 69.3384C50.2785 69.1344 50.2385 68.9604 50.1585 68.8164C50.0785 68.6684 49.9705 68.5564 49.8345 68.4804C49.6985 68.4004 49.5525 68.3604 49.3965 68.3604C49.2405 68.3604 49.0965 68.3984 48.9645 68.4744C48.8325 68.5504 48.7245 68.6624 48.6405 68.8104C48.5605 68.9544 48.5205 69.1264 48.5205 69.3264C48.5205 69.5264 48.5605 69.7024 48.6405 69.8544C48.7245 70.0024 48.8325 70.1164 48.9645 70.1964C49.1005 70.2764 49.2445 70.3164 49.3965 70.3164C49.5525 70.3164 49.6985 70.2784 49.8345 70.2024C49.9705 70.1224 50.0785 70.0104 50.1585 69.8664C50.2385 69.7184 50.2785 69.5424 50.2785 69.3384ZM53.2469 71.0544C52.9749 71.0544 52.7309 71.0064 52.5149 70.9104C52.2989 70.8104 52.1269 70.6764 51.9989 70.5084C51.8749 70.3404 51.8069 70.1544 51.7949 69.9504H52.6409C52.6569 70.0784 52.7189 70.1844 52.8269 70.2684C52.9389 70.3524 53.0769 70.3944 53.2409 70.3944C53.4009 70.3944 53.5249 70.3624 53.6129 70.2984C53.7049 70.2344 53.7509 70.1524 53.7509 70.0524C53.7509 69.9444 53.6949 69.8644 53.5829 69.8124C53.4749 69.7564 53.3009 69.6964 53.0609 69.6324C52.8129 69.5724 52.6089 69.5104 52.4489 69.4464C52.2929 69.3824 52.1569 69.2844 52.0409 69.1524C51.9289 69.0204 51.8729 68.8424 51.8729 68.6184C51.8729 68.4344 51.9249 68.2664 52.0289 68.1144C52.1369 67.9624 52.2889 67.8424 52.4849 67.7544C52.6849 67.6664 52.9189 67.6224 53.1869 67.6224C53.5829 67.6224 53.8989 67.7224 54.1349 67.9224C54.3709 68.1184 54.5009 68.3844 54.5249 68.7204H53.7209C53.7089 68.5884 53.6529 68.4844 53.5529 68.4084C53.4569 68.3284 53.3269 68.2884 53.1629 68.2884C53.0109 68.2884 52.8929 68.3164 52.8089 68.3724C52.7289 68.4284 52.6889 68.5064 52.6889 68.6064C52.6889 68.7184 52.7449 68.8044 52.8569 68.8644C52.9689 68.9204 53.1429 68.9784 53.3789 69.0384C53.6189 69.0984 53.8169 69.1604 53.9729 69.2244C54.1289 69.2884 54.2629 69.3884 54.3749 69.5244C54.4909 69.6564 54.5509 69.8324 54.5549 70.0524C54.5549 70.2444 54.5009 70.4164 54.3929 70.5684C54.2889 70.7204 54.1369 70.8404 53.9369 70.9284C53.7409 71.0124 53.5109 71.0544 53.2469 71.0544ZM57.1601 67.2804C57.0121 67.2804 56.8881 67.2344 56.7881 67.1424C56.6921 67.0464 56.6441 66.9284 56.6441 66.7884C56.6441 66.6484 56.6921 66.5324 56.7881 66.4404C56.8881 66.3444 57.0121 66.2964 57.1601 66.2964C57.3081 66.2964 57.4301 66.3444 57.5261 66.4404C57.6261 66.5324 57.6761 66.6484 57.6761 66.7884C57.6761 66.9284 57.6261 67.0464 57.5261 67.1424C57.4301 67.2344 57.3081 67.2804 57.1601 67.2804ZM57.5741 67.6764V71.0004H56.7341V67.6764H57.5741ZM60.276 67.6284C60.672 67.6284 60.992 67.7544 61.236 68.0064C61.48 68.2544 61.602 68.6024 61.602 69.0504V71.0004H60.762V69.1644C60.762 68.9004 60.696 68.6984 60.564 68.5584C60.432 68.4144 60.252 68.3424 60.024 68.3424C59.792 68.3424 59.608 68.4144 59.472 68.5584C59.34 68.6984 59.274 68.9004 59.274 69.1644V71.0004H58.434V67.6764H59.274V68.0904C59.386 67.9464 59.528 67.8344 59.7 67.7544C59.876 67.6704 60.068 67.6284 60.276 67.6284ZM63.4088 68.3664V69.9744C63.4088 70.0864 63.4348 70.1684 63.4868 70.2204C63.5428 70.2684 63.6348 70.2924 63.7628 70.2924H64.1528V71.0004H63.6248C62.9168 71.0004 62.5628 70.6564 62.5628 69.9684V68.3664H62.1668V67.6764H62.5628V66.8544H63.4088V67.6764H64.1528V68.3664H63.4088ZM67.877 69.2664C67.877 69.3864 67.869 69.4944 67.853 69.5904H65.423C65.443 69.8304 65.527 70.0184 65.675 70.1544C65.823 70.2904 66.005 70.3584 66.221 70.3584C66.533 70.3584 66.755 70.2244 66.887 69.9564H67.793C67.697 70.2764 67.513 70.5404 67.241 70.7484C66.969 70.9524 66.635 71.0544 66.239 71.0544C65.919 71.0544 65.631 70.9844 65.375 70.8444C65.123 70.7004 64.925 70.4984 64.781 70.2384C64.641 69.9784 64.571 69.6784 64.571 69.3384C64.571 68.9944 64.641 68.6924 64.781 68.4324C64.921 68.1724 65.117 67.9724 65.369 67.8324C65.621 67.6924 65.911 67.6224 66.239 67.6224C66.555 67.6224 66.837 67.6904 67.085 67.8264C67.337 67.9624 67.531 68.1564 67.667 68.4084C67.807 68.6564 67.877 68.9424 67.877 69.2664ZM67.007 69.0264C67.003 68.8104 66.925 68.6384 66.773 68.5104C66.621 68.3784 66.435 68.3124 66.215 68.3124C66.007 68.3124 65.831 68.3764 65.687 68.5044C65.547 68.6284 65.461 68.8024 65.429 69.0264H67.007ZM69.3601 68.1924C69.4681 68.0164 69.6081 67.8784 69.7801 67.7784C69.9561 67.6784 70.1561 67.6284 70.3801 67.6284V68.5104H70.1581C69.8941 68.5104 69.6941 68.5724 69.5581 68.6964C69.4261 68.8204 69.3601 69.0364 69.3601 69.3444V71.0004H68.5201V67.6764H69.3601V68.1924ZM71.8159 68.1564C71.9239 68.0044 72.0719 67.8784 72.2599 67.7784C72.4519 67.6744 72.6699 67.6224 72.9139 67.6224C73.1979 67.6224 73.4539 67.6924 73.6819 67.8324C73.9139 67.9724 74.0959 68.1724 74.2279 68.4324C74.3639 68.6884 74.4319 68.9864 74.4319 69.3264C74.4319 69.6664 74.3639 69.9684 74.2279 70.2324C74.0959 70.4924 73.9139 70.6944 73.6819 70.8384C73.4539 70.9824 73.1979 71.0544 72.9139 71.0544C72.6699 71.0544 72.4539 71.0044 72.2659 70.9044C72.0819 70.8044 71.9319 70.6784 71.8159 70.5264V72.5844H70.9759V67.6764H71.8159V68.1564ZM73.5739 69.3264C73.5739 69.1264 73.5319 68.9544 73.4479 68.8104C73.3679 68.6624 73.2599 68.5504 73.1239 68.4744C72.9919 68.3984 72.8479 68.3604 72.6919 68.3604C72.5399 68.3604 72.3959 68.4004 72.2599 68.4804C72.1279 68.5564 72.0199 68.6684 71.9359 68.8164C71.8559 68.9644 71.8159 69.1384 71.8159 69.3384C71.8159 69.5384 71.8559 69.7124 71.9359 69.8604C72.0199 70.0084 72.1279 70.1224 72.2599 70.2024C72.3959 70.2784 72.5399 70.3164 72.6919 70.3164C72.8479 70.3164 72.9919 70.2764 73.1239 70.1964C73.2599 70.1164 73.3679 70.0024 73.4479 69.8544C73.5319 69.7064 73.5739 69.5304 73.5739 69.3264ZM75.9123 68.1924C76.0203 68.0164 76.1603 67.8784 76.3323 67.7784C76.5083 67.6784 76.7083 67.6284 76.9323 67.6284V68.5104H76.7103C76.4463 68.5104 76.2463 68.5724 76.1103 68.6964C75.9783 68.8204 75.9123 69.0364 75.9123 69.3444V71.0004H75.0723V67.6764H75.9123V68.1924ZM80.6181 69.2664C80.6181 69.3864 80.6101 69.4944 80.5941 69.5904H78.1641C78.1841 69.8304 78.2681 70.0184 78.4161 70.1544C78.5641 70.2904 78.7461 70.3584 78.9621 70.3584C79.2741 70.3584 79.4961 70.2244 79.6281 69.9564H80.5341C80.4381 70.2764 80.2541 70.5404 79.9821 70.7484C79.7101 70.9524 79.3761 71.0544 78.9801 71.0544C78.6601 71.0544 78.3721 70.9844 78.1161 70.8444C77.8641 70.7004 77.6661 70.4984 77.5221 70.2384C77.3821 69.9784 77.3121 69.6784 77.3121 69.3384C77.3121 68.9944 77.3821 68.6924 77.5221 68.4324C77.6621 68.1724 77.8581 67.9724 78.1101 67.8324C78.3621 67.6924 78.6521 67.6224 78.9801 67.6224C79.2961 67.6224 79.5781 67.6904 79.8261 67.8264C80.0781 67.9624 80.2721 68.1564 80.4081 68.4084C80.5481 68.6564 80.6181 68.9424 80.6181 69.2664ZM79.7481 69.0264C79.7441 68.8104 79.6661 68.6384 79.5141 68.5104C79.3621 68.3784 79.1761 68.3124 78.9561 68.3124C78.7481 68.3124 78.5721 68.3764 78.4281 68.5044C78.2881 68.6284 78.2021 68.8024 78.1701 69.0264H79.7481ZM82.2392 68.3664V69.9744C82.2392 70.0864 82.2652 70.1684 82.3172 70.2204C82.3732 70.2684 82.4652 70.2924 82.5932 70.2924H82.9832V71.0004H82.4552C81.7472 71.0004 81.3932 70.6564 81.3932 69.9684V68.3664H80.9972V67.6764H81.3932V66.8544H82.2392V67.6764H82.9832V68.3664H82.2392ZM86.7074 69.2664C86.7074 69.3864 86.6994 69.4944 86.6834 69.5904H84.2534C84.2734 69.8304 84.3574 70.0184 84.5054 70.1544C84.6534 70.2904 84.8354 70.3584 85.0514 70.3584C85.3634 70.3584 85.5854 70.2244 85.7174 69.9564H86.6234C86.5274 70.2764 86.3434 70.5404 86.0714 70.7484C85.7994 70.9524 85.4654 71.0544 85.0694 71.0544C84.7494 71.0544 84.4614 70.9844 84.2054 70.8444C83.9534 70.7004 83.7554 70.4984 83.6114 70.2384C83.4714 69.9784 83.4014 69.6784 83.4014 69.3384C83.4014 68.9944 83.4714 68.6924 83.6114 68.4324C83.7514 68.1724 83.9474 67.9724 84.1994 67.8324C84.4514 67.6924 84.7414 67.6224 85.0694 67.6224C85.3854 67.6224 85.6674 67.6904 85.9154 67.8264C86.1674 67.9624 86.3614 68.1564 86.4974 68.4084C86.6374 68.6564 86.7074 68.9424 86.7074 69.2664ZM85.8374 69.0264C85.8334 68.8104 85.7554 68.6384 85.6034 68.5104C85.4514 68.3784 85.2654 68.3124 85.0454 68.3124C84.8374 68.3124 84.6614 68.3764 84.5174 68.5044C84.3774 68.6284 84.2914 68.8024 84.2594 69.0264H85.8374ZM88.1905 68.1924C88.2985 68.0164 88.4385 67.8784 88.6105 67.7784C88.7865 67.6784 88.9865 67.6284 89.2105 67.6284V68.5104H88.9885C88.7245 68.5104 88.5245 68.5724 88.3885 68.6964C88.2565 68.8204 88.1905 69.0364 88.1905 69.3444V71.0004H87.3505V67.6764H88.1905V68.1924Z" fill="#FBFEFD"/>
<defs>
<filter id="filter0_d_407_2238" x="1.00003" y="53.0004" width="126.08" height="41.76" filterUnits="userSpaceOnUse" color-interpolation-filters="sRGB">
<feFlood flood-opacity="0" result="BackgroundImageFix"/>
<feColorMatrix in="SourceAlpha" type="matrix" values="0 0 0 0 0 0 0 0 0 0 0 0 0 0 0 0 0 0 127 0" result="hardAlpha"/>
<feOffset dx="2" dy="4"/>
<feGaussianBlur stdDeviation="3"/>
<feComposite in2="hardAlpha" operator="out"/>
<feColorMatrix type="matrix" values="0 0 0 0 0.145098 0 0 0 0 0.156863 0 0 0 0 0.211765 0 0 0 0.08 0"/>
<feBlend mode="normal" in2="BackgroundImageFix" result="effect1_dropShadow_407_2238"/>
<feBlend mode="normal" in="SourceGraphic" in2="effect1_dropShadow_407_2238" result="shape"/>
</filter>
</defs>
</svg>

<svg width="500" height="500" viewBox="0 0 128 95" fill="none" xmlns="http://www.w3.org/2000/svg"><rect width="124" height="94.24" rx="4" fill="#EAECEC"/><rect x="4.96" y="4.96" width="114.08" height="43.4" rx="4" fill="#DFE2E2"/><g filter="url(#a)"><rect x="5" y="55" width="114.08" height="29.76" rx="4" fill="#E62129"/></g><path d="M35.856 66.812v2.94c0 .408-.118.726-.354.954-.236.224-.552.336-.948.336-.4 0-.724-.116-.972-.348-.244-.232-.366-.556-.366-.972h.84c.004.18.046.32.126.42.084.1.204.15.36.15.152 0 .268-.048.348-.144a.6.6 0 0 0 .12-.396v-2.94h.846Zm2.486 4.242c-.32 0-.608-.07-.864-.21a1.575 1.575 0 0 1-.606-.606 1.827 1.827 0 0 1-.216-.9c0-.34.074-.64.222-.9.152-.26.358-.46.618-.6.26-.144.55-.216.87-.216.32 0 .61.072.87.216.26.14.464.34.612.6.152.26.228.56.228.9 0 .34-.078.64-.234.9-.152.26-.36.462-.624.606-.26.14-.552.21-.876.21Zm0-.732a.82.82 0 0 0 .75-.444c.08-.148.12-.328.12-.54 0-.316-.084-.558-.252-.726a.804.804 0 0 0-.606-.258.804.804 0 0 0-.606.258c-.16.168-.24.41-.24.726s.078.56.234.732c.16.168.36.252.6.252Zm2.806-3.042a.529.529 0 0 1-.372-.138.481.481 0 0 1-.144-.354c0-.14.048-.256.144-.348a.516.516 0 0 1 .372-.144c.148 0 .27.048.366.144.1.092.15.208.15.348 0 .14-.05.258-.15.354a.508.508 0 0 1-.366.138Zm.414.396V71h-.84v-3.324h.84Zm2.702-.048c.396 0 .716.126.96.378.244.248.366.596.366 1.044V71h-.84v-1.836c0-.264-.066-.466-.198-.606-.132-.144-.312-.216-.54-.216-.232 0-.416.072-.552.216-.132.14-.198.342-.198.606V71h-.84v-3.324h.84v.414c.112-.144.254-.256.426-.336a1.32 1.32 0 0 1 .576-.126Zm3.398 1.698c0-.336.066-.634.199-.894.136-.26.318-.46.546-.6.232-.14.49-.21.774-.21a1.337 1.337 0 0 1 1.098.528v-.474h.845V71h-.846v-.486a1.27 1.27 0 0 1-.45.39c-.188.1-.406.15-.654.15-.28 0-.535-.072-.767-.216a1.546 1.546 0 0 1-.546-.606 2 2 0 0 1-.198-.906Zm2.617.012c0-.204-.04-.378-.12-.522a.82.82 0 0 0-.325-.336.85.85 0 0 0-.438-.12.85.85 0 0 0-.755.45c-.08.144-.12.316-.12.516s.04.376.12.528a.921.921 0 0 0 .324.342c.135.08.28.12.431.12a.884.884 0 0 0 .438-.114.873.873 0 0 0 .324-.336c.08-.148.12-.324.12-.528Zm2.968 1.716c-.272 0-.516-.048-.732-.144a1.343 1.343 0 0 1-.516-.402 1.023 1.023 0 0 1-.204-.558h.846a.464.464 0 0 0 .186.318.67.67 0 0 0 .414.126c.16 0 .284-.032.372-.096a.29.29 0 0 0 .138-.246c0-.108-.056-.188-.168-.24a2.787 2.787 0 0 0-.522-.18 4.598 4.598 0 0 1-.612-.186 1.088 1.088 0 0 1-.408-.294c-.112-.132-.168-.31-.168-.534 0-.184.052-.352.156-.504.108-.152.26-.272.456-.36.2-.088.434-.132.702-.132.396 0 .712.1.948.3.236.196.366.462.39.798h-.804a.422.422 0 0 0-.168-.312.59.59 0 0 0-.39-.12.635.635 0 0 0-.354.084.27.27 0 0 0-.12.234c0 .112.056.198.168.258.112.056.286.114.522.174.24.06.438.122.594.186.156.064.29.164.402.3.116.132.176.308.18.528a.87.87 0 0 1-.162.516 1.044 1.044 0 0 1-.456.36 1.742 1.742 0 0 1-.69.126Zm3.913-3.774a.529.529 0 0 1-.372-.138.481.481 0 0 1-.144-.354c0-.14.048-.256.144-.348a.516.516 0 0 1 .372-.144c.148 0 .27.048.366.144.1.092.15.208.15.348 0 .14-.05.258-.15.354a.508.508 0 0 1-.366.138Zm.414.396V71h-.84v-3.324h.84Zm2.702-.048c.396 0 .716.126.96.378.244.248.366.596.366 1.044V71h-.84v-1.836c0-.264-.066-.466-.198-.606-.132-.144-.312-.216-.54-.216-.232 0-.416.072-.552.216-.132.14-.198.342-.198.606V71h-.84v-3.324h.84v.414c.112-.144.254-.256.426-.336a1.32 1.32 0 0 1 .576-.126Zm3.133.738v1.608c0 .112.026.194.078.246.056.048.148.072.276.072h.39V71h-.528c-.708 0-1.062-.344-1.062-1.032v-1.602h-.396v-.69h.396v-.822h.846v.822h.744v.69h-.744Zm4.468.9c0 .12-.008.228-.024.324h-2.43c.02.24.104.428.252.564.148.136.33.204.546.204.312 0 .534-.134.666-.402h.906a1.53 1.53 0 0 1-.552.792c-.272.204-.606.306-1.002.306-.32 0-.608-.07-.864-.21a1.546 1.546 0 0 1-.594-.606c-.14-.26-.21-.56-.21-.9 0-.344.07-.646.21-.906.14-.26.336-.46.588-.6.252-.14.542-.21.87-.21.316 0 .598.068.846.204.252.136.446.33.582.582.14.248.21.534.21.858Zm-.87-.24a.657.657 0 0 0-.234-.516.821.821 0 0 0-.558-.198.766.766 0 0 0-.528.192.825.825 0 0 0-.258.522h1.578Zm2.353-.834c.108-.176.248-.314.42-.414.176-.1.376-.15.6-.15v.882h-.222c-.264 0-.464.062-.6.186-.132.124-.198.34-.198.648V71h-.84v-3.324h.84v.516Zm2.456-.036a1.35 1.35 0 0 1 1.098-.534 1.438 1.438 0 0 1 1.314.81c.136.256.204.554.204.894 0 .34-.068.642-.204.906-.132.26-.314.462-.546.606a1.408 1.408 0 0 1-.768.216c-.244 0-.46-.05-.648-.15a1.393 1.393 0 0 1-.45-.378v2.058h-.84v-4.908h.84v.48Zm1.758 1.17c0-.2-.042-.372-.126-.516a.85.85 0 0 0-1.188-.33.874.874 0 0 0-.324.336c-.08.148-.12.322-.12.522s.04.374.12.522a.921.921 0 0 0 .324.342c.136.076.28.114.432.114a.862.862 0 0 0 .756-.462c.084-.148.126-.324.126-.528Zm2.338-1.134c.108-.176.248-.314.42-.414.176-.1.376-.15.6-.15v.882h-.222c-.264 0-.464.062-.6.186-.132.124-.198.34-.198.648V71h-.84v-3.324h.84v.516Zm4.706 1.074c0 .12-.008.228-.024.324h-2.43c.02.24.104.428.252.564.148.136.33.204.546.204.312 0 .534-.134.666-.402h.906a1.53 1.53 0 0 1-.552.792c-.272.204-.606.306-1.002.306-.32 0-.608-.07-.864-.21a1.546 1.546 0 0 1-.594-.606c-.14-.26-.21-.56-.21-.9 0-.344.07-.646.21-.906.14-.26.336-.46.588-.6.252-.14.542-.21.87-.21.316 0 .598.068.846.204.252.136.446.33.582.582.14.248.21.534.21.858Zm-.87-.24a.657.657 0 0 0-.234-.516.821.821 0 0 0-.558-.198.766.766 0 0 0-.528.192.825.825 0 0 0-.258.522h1.578Zm2.491-.66v1.608c0 .112.026.194.078.246.056.048.148.072.276.072h.39V71h-.528c-.708 0-1.062-.344-1.062-1.032v-1.602h-.396v-.69h.396v-.822h.846v.822h.744v.69h-.744Zm4.468.9c0 .12-.008.228-.024.324h-2.43c.02.24.104.428.252.564.148.136.33.204.546.204.312 0 .534-.134.666-.402h.906a1.53 1.53 0 0 1-.552.792c-.272.204-.606.306-1.002.306-.32 0-.608-.07-.864-.21a1.546 1.546 0 0 1-.594-.606c-.14-.26-.21-.56-.21-.9 0-.344.07-.646.21-.906.14-.26.336-.46.588-.6.252-.14.542-.21.87-.21.316 0 .598.068.846.204.252.136.446.33.582.582.14.248.21.534.21.858Zm-.87-.24a.657.657 0 0 0-.234-.516.821.821 0 0 0-.558-.198.766.766 0 0 0-.528.192.825.825 0 0 0-.258.522h1.578Zm2.353-.834c.109-.176.249-.314.42-.414.177-.1.377-.15.6-.15v.882h-.221c-.264 0-.465.062-.6.186-.132.124-.198.34-.198.648V71h-.84v-3.324h.84v.516Z" fill="#FBFEFD"/><defs><filter id="a" x="1" y="53" width="126.08" height="41.76" filterUnits="userSpaceOnUse" color-interpolation-filters="sRGB"><feFlood flood-opacity="0" result="BackgroundImageFix"/><feColorMatrix in="SourceAlpha" values="0 0 0 0 0 0 0 0 0 0 0 0 0 0 0 0 0 0 127 0" result="hardAlpha"/><feOffset dx="2" dy="4"/><feGaussianBlur stdDeviation="3"/><feComposite in2="hardAlpha" operator="out"/><feColorMatrix values="0 0 0 0 0.145098 0 0 0 0 0.156863 0 0 0 0 0.211765 0 0 0 0.08 0"/><feBlend in2="BackgroundImageFix" result="effect1_dropShadow_407_2238"/><feBlend in="SourceGraphic" in2="effect1_dropShadow_407_2238" result="shape"/></filter></defs></svg>
